X:1
T:Farewell To Whalley Range
R:slip jig
M:9/8
L:1/8
K:F#m
|:~F2c BAF ~F2E|~F2c BAB fec|~B2B BAB cBA|1 ~B2B BAB cBA:|2 ~B2B BAB cef|]
|:~a2f fec fec|~B2B BAB cef|~a2f baf afe|1 fec Bce ~f2e:|2 fec fec BAB|]